X:
T:St Bruno en Musique
C:Laurence Beaudry
N:© Laurence Beaudry, Reproduced with permission
Z:robin.beech@mcgill.ca
R:reel
P:AABAABAC
M:4/4
L:1/8
K:G
P:A
DGBG cBAG | AFFA DEFD | GEEG c3e| dcBG AFD2 |
GABG cBAG | AFFA dAFD | CEGE F3A | dcAF G4 ||
P:B
cBAG FdcB | AGFG AFD2 | cBAB cedf | gdBG A3B | 
cBAG FdcB | AGFG AFD2 | GBDC B,DGB | AGFG A4 ||
P:C
cBAG FdcB | AGFG AFD2 | cBAB cBAG | FGFED3B | 
cBAG FdcB | AGFG AFD2 | GBdg ecag | fdcA [G4B,4] |]

